packages/icons/src/governance-policy-set.svg

<svg fill="none" viewBox="0 0 25 24" xmlns="http://www.w3.org/2000/svg"><g clip-rule="evenodd" fill="#0b0b0d" fill-rule="evenodd"><path d="m4.52393 3c0-.41421.33578-.75.75-.75h14.99997c.4142 0 .75.33579.75.75v13.4753c0 2.2702-1.6804 4.1457-3.8621 4.4552-.0818.0306-.1704.0474-.2629.0474-.0869 0-.1724-.0014-.2565-.0041-.0491.0013-.0985.0018-.148.0014l-.5447-.0035-5.4219.0283h-.0039-4.49997c-2.07107 0-3.75-1.6789-3.75-3.75v-1.5c0-.4142.33578-.75.75-.75h1.5zm1.5 12h7.49997c.4142 0 .75.3358.75.75 0 1.1826.0167 2.0995.3418 2.7455.1452.2883.3521.5161.675.6821.2979.1532.7278.2704 1.3542.2954 1.5995-.0633 2.879-1.3803 2.879-2.9977v-12.7253h-13.49997zm7.43307 4.4847c-.0664-.1015-.1267-.2066-.1811-.3148-.4024-.7995-.4826-1.7745-.4983-2.6699h-9.00367v.75c0 1.2426 1.00736 2.25 2.25 2.25h4.49997z"/><path d="m17.5586 6.43452c.2929.2929.2929.76777 0 1.06066l-5.5657 5.56552-2.79617-2.7962c-.2929-.29284-.29291-.76772-.00002-1.06062.29289-.29289.76777-.2929 1.06069-.00001l1.7355 1.73553 4.505-4.50489c.2929-.29289.7678-.29289 1.0607.00001z"/></g></svg>

<svg viewBox="0 0 25 24" fill="none" xmlns="http://www.w3.org/2000/svg">
<path fill-rule="evenodd" clip-rule="evenodd" d="M4.52393 3C4.52393 2.58579 4.85971 2.25 5.27393 2.25H20.2739C20.6881 2.25 21.0239 2.58579 21.0239 3V16.4753C21.0239 18.7455 19.3435 20.621 17.1618 20.9305C17.08 20.9611 16.9914 20.9779 16.8989 20.9779C16.812 20.9779 16.7265 20.9765 16.6424 20.9738C16.5933 20.9751 16.5439 20.9756 16.4944 20.9752L15.9497 20.9717L10.5278 21L10.5239 21H6.02393C3.95286 21 2.27393 19.3211 2.27393 17.25V15.75C2.27393 15.3358 2.60971 15 3.02393 15H4.52393V3ZM6.02393 15H13.5239C13.9381 15 14.2739 15.3358 14.2739 15.75C14.2739 16.9326 14.2906 17.8495 14.6157 18.4955C14.7609 18.7838 14.9678 19.0116 15.2907 19.1776C15.5886 19.3308 16.0185 19.448 16.6449 19.473C18.2444 19.4097 19.5239 18.0927 19.5239 16.4753V3.75H6.02393V15ZM13.457 19.4847C13.3906 19.3832 13.3303 19.2781 13.2759 19.1699C12.8735 18.3704 12.7933 17.3954 12.7776 16.5H3.77393V17.25C3.77393 18.4926 4.78129 19.5 6.02393 19.5H10.5239L13.457 19.4847Z" fill="#0B0B0D"/>
<path fill-rule="evenodd" clip-rule="evenodd" d="M17.5586 6.43452C17.8515 6.72742 17.8515 7.20229 17.5586 7.49518L11.9929 13.0607L9.19673 10.2645C8.90383 9.97166 8.90382 9.49678 9.19671 9.20388C9.4896 8.91099 9.96448 8.91098 10.2574 9.20387L11.9929 10.9394L16.4979 6.43451C16.7908 6.14162 17.2657 6.14162 17.5586 6.43452Z" fill="#0B0B0D"/>
</svg>
